resources/svg/code-block.svg

<svg xmlns="http://www.w3.org/2000/svg" fill="none" viewBox="0 0 14 14"><path fill="currentColor" fill-rule="evenodd" d="M12.2681 3.63257L1.73186 3.63257C1.72084 3.69144 1.71205 3.75103 1.70561 3.81126C1.5926 4.86757 1.5 5.92764 1.5 7C1.5 8.07236 1.5926 9.13242 1.70561 10.1887C1.82214 11.2779 2.70378 12.1613 3.79574 12.283C4.85884 12.4015 5.9234 12.5 7 12.5C8.0766 12.5 9.14116 12.4015 10.2043 12.283C11.2962 12.1613 12.1779 11.2779 12.2944 10.1887C12.4074 9.13242 12.5 8.07236 12.5 7C12.5 5.92764 12.4074 4.86757 12.2944 3.81126C12.2879 3.75103 12.2792 3.69144 12.2681 3.63257ZM3.62957 0.226225C4.70557 0.10629 5.83734 0 7 0C8.16266 0 9.29443 0.10629 10.3704 0.226225C12.1584 0.425517 13.5941 1.85954 13.7859 3.65168C13.9004 4.72239 14 5.84605 14 7C14 8.15395 13.9004 9.27761 13.7859 10.3483C13.5941 12.1405 12.1584 13.5745 10.3704 13.7738C9.29443 13.8937 8.16266 14 7 14C5.83734 14 4.70557 13.8937 3.62957 13.7738C1.84163 13.5745 0.405862 12.1405 0.214123 10.3483C0.0995702 9.27761 0 8.15395 0 7C0 5.84604 0.09957 4.72239 0.214123 3.65168C0.405861 1.85954 1.84163 0.425517 3.62957 0.226225ZM4.81436 6.07397C5.05844 6.31805 5.05844 6.71378 4.81436 6.95786L3.82309 7.94913L4.81436 8.9404C5.05844 9.18448 5.05844 9.5802 4.81436 9.82428C4.57029 10.0684 4.17456 10.0684 3.93048 9.82428L2.49727 8.39107C2.25319 8.14699 2.25319 7.75126 2.49727 7.50719L3.93048 6.07397C4.17456 5.8299 4.57029 5.8299 4.81436 6.07397ZM10.0695 6.07397C9.82543 5.8299 9.4297 5.8299 9.18562 6.07397C8.94154 6.31805 8.94154 6.71378 9.18562 6.95786L10.1769 7.94913L9.18562 8.9404C8.94154 9.18448 8.94154 9.5802 9.18562 9.82428C9.4297 10.0684 9.82543 10.0684 10.0695 9.82428L11.5027 8.39107C11.7468 8.14699 11.7468 7.75126 11.5027 7.50719L10.0695 6.07397ZM7.9143 4.96751C8.24177 5.07667 8.41874 5.43062 8.30959 5.75808L6.87637 10.0577C6.76722 10.3852 6.41327 10.5622 6.0858 10.453C5.75834 10.3439 5.58137 9.9899 5.69052 9.66244L7.12373 5.3628C7.23289 5.03533 7.58684 4.85836 7.9143 4.96751Z" clip-rule="evenodd"></path></svg>

<svg xmlns="http://www.w3.org/2000/svg" fill="none" viewBox="0 0 14 14"><path fill="currentColor" fill-rule="evenodd" d="M12.268 3.633H1.732a2.3 2.3 0 0 0-.026.178C1.593 4.868 1.5 5.928 1.5 7s.093 2.132.206 3.189a2.382 2.382 0 0 0 2.09 2.094c1.063.119 2.127.217 3.204.217 1.077 0 2.141-.098 3.204-.217a2.382 2.382 0 0 0 2.09-2.094c.113-1.057.206-2.117.206-3.189s-.093-2.132-.206-3.189a2.29 2.29 0 0 0-.026-.178ZM3.63.226C4.706.106 5.837 0 7 0c1.163 0 2.294.106 3.37.226a3.882 3.882 0 0 1 3.416 3.426C13.9 4.722 14 5.846 14 7s-.1 2.278-.214 3.348a3.882 3.882 0 0 1-3.416 3.426C9.294 13.894 8.163 14 7 14c-1.163 0-2.294-.106-3.37-.226a3.882 3.882 0 0 1-3.416-3.426C.1 9.278 0 8.154 0 7s.1-2.278.214-3.348A3.882 3.882 0 0 1 3.63.226Zm1.184 5.848a.625.625 0 0 1 0 .884l-.99.991.99.991a.625.625 0 1 1-.884.884L2.497 8.391a.625.625 0 0 1 0-.884L3.93 6.074a.625.625 0 0 1 .884 0Zm5.255 0a.625.625 0 0 0-.883.884l.99.991-.99.991a.625.625 0 1 0 .883.884l1.434-1.433a.625.625 0 0 0 0-.884l-1.434-1.433ZM7.915 4.968a.625.625 0 0 1 .396.79l-1.434 4.3a.625.625 0 1 1-1.185-.396l1.433-4.3a.625.625 0 0 1 .79-.394Z" clip-rule="evenodd"/></svg>
